Yaru++/apps/16/preferences-desktop-wallpaper.svg

<svg height="16" width="16" xmlns="http://www.w3.org/2000/svg"><g fill="#808080"><path d="m3.994 1c-1.258.015-2.179-.03-2.932.385a1.88 1.88 0 0 0 -.837.998c-.165.438-.225.96-.225 1.617v6c0 .658.06 1.179.225 1.617.164.439.461.79.837.998.753.416 1.674.37 2.932.385h8.012c1.258-.015 2.179.03 2.932-.385a1.88 1.88 0 0 0 .838-.998c.164-.438.224-.96.224-1.617v-6c0-.658-.06-1.179-.225-1.617a1.88 1.88 0 0 0 -.837-.998c-.753-.416-1.674-.37-2.932-.385h-8.008zm.006 1h8c1.259.015 2.087.06 2.453.262.184.1.29.212.387.472s.16.674.16 1.266v6c0 .592-.063 1.006-.16 1.266-.098.26-.203.371-.387.472-.366.202-1.194.247-2.453.262h-8c-1.259-.015-2.09-.06-2.455-.262-.183-.1-.287-.212-.385-.472-.097-.26-.16-.674-.16-1.266v-6c0-.592.063-1.006.16-1.266.098-.26.202-.371.385-.472.366-.202 1.196-.247 2.455-.262z"/><path d="m6 12h4v1.5c0 1.5.5 1.5 1.5 1.5h.5v1h-8v-1h.5c1 0 1.5 0 1.5-1.5zm4.5-10.5h1.5c2.522.03 3.5 0 3.5 2.5v2.5z"/><path d="m9.5 1a.5.5 0 0 0 -.5.5v3.5c0 .658.06 1.179.225 1.617.164.439.461.79.837.998.753.416 1.674.37 2.932.385a.5.5 0 0 0 .006 0h2.5a.5.5 0 0 0 .5-.5v-.5a.5.5 0 0 0 -.146-.354l-5.5-5.5a.5.5 0 0 0 -.354-.146zm.5 1.207 4.793 4.793h-1.793c-1.259-.015-2.087-.06-2.453-.262-.184-.1-.29-.212-.387-.472s-.16-.674-.16-1.266z"/></g></svg>

<svg xmlns="http://www.w3.org/2000/svg" width="16" height="16">
 <g fill="#808080" color="#000">
  <path d="M3.994 1c-1.258.015-2.179-.03-2.932.385a1.88 1.88 0 0 0-.837.998C.06 2.821 0 3.343 0 4v6c0 .658.06 1.179.225 1.617.164.439.461.79.837.998.753.416 1.674.37 2.932.385h8.012c1.258-.015 2.179.03 2.932-.385a1.88 1.88 0 0 0 .838-.998c.164-.438.224-.96.224-1.617V4c0-.658-.06-1.179-.225-1.617a1.88 1.88 0 0 0-.837-.998c-.753-.416-1.674-.37-2.932-.385H3.998zM4 2h8c1.259.015 2.087.06 2.453.262.184.1.29.212.387.472.097.26.16.674.16 1.266v6c0 .592-.063 1.006-.16 1.266-.098.26-.203.371-.387.472-.366.202-1.194.247-2.453.262H4c-1.259-.015-2.09-.06-2.455-.262-.183-.1-.287-.212-.385-.472C1.063 11.006 1 10.592 1 10V4c0-.592.063-1.006.16-1.266.098-.26.202-.371.385-.472C1.911 2.06 2.741 2.015 4 2z" font-family="sans-serif" font-weight="400" overflow="visible"/>
  <path d="M6 12h4v1.5c0 1.5.5 1.5 1.5 1.5h.5v1H4v-1h.5c1 0 1.5 0 1.5-1.5zm4.5-10.5H12c2.522.03 3.5 0 3.5 2.5v2.5z" overflow="visible"/>
  <path d="M9.5 1a.5.5 0 0 0-.5.5V5c0 .658.06 1.179.225 1.617.164.439.461.79.837.998.753.416 1.674.37 2.932.385A.5.5 0 0 0 13 8h2.5a.5.5 0 0 0 .5-.5V7a.5.5 0 0 0-.146-.354l-5.5-5.5A.5.5 0 0 0 10 1zm.5 1.207L14.793 7H13c-1.259-.015-2.087-.06-2.453-.262-.184-.1-.29-.212-.387-.472C10.063 6.006 10 5.592 10 5z" font-family="sans-serif" font-weight="400" overflow="visible"/>
 </g>
</svg>
